src/icons/ci-with-text.svg

<svg width="168" height="56" viewBox="0 0 168 56" fill="none" xmlns="http://www.w3.org/2000/svg">
<rect width="168" height="56" fill="white"/>
<path fill-rule="evenodd" clip-rule="evenodd" d="M52.25 28C52.25 30.0047 51.8612 31.9539 51.182 33.749C51.0573 34.0786 50.6364 34.1614 50.3857 33.9137L45.3994 28.9875C45.1913 28.7819 45.1565 28.461 45.2921 28.2019C45.8329 27.1684 46.1033 25.9862 46.1033 24.75C46.1739 20.7228 42.8533 17.4022 38.7554 17.4022C37.4544 17.4022 36.2621 17.7281 35.226 18.2848C34.9709 18.4218 34.6535 18.3891 34.4474 18.1857L30.0087 13.8046C29.6959 13.4959 29.7916 12.9699 30.2018 12.8123C32.0067 12.1193 33.9242 11.75 36 11.75C44.9728 11.75 52.25 19.0272 52.25 28ZM26.5944 14.7758C26.8841 14.5716 27.2771 14.6141 27.5277 14.8647L32.5718 19.9088C32.7947 20.1317 32.8142 20.4841 32.6393 20.7463C31.8509 21.9282 31.4076 23.319 31.4076 24.8207C31.4076 28.9185 34.7283 32.2391 38.8261 32.2391C40.3277 32.2391 41.7185 31.7959 42.9004 31.0075C43.1626 30.8325 43.5151 30.852 43.738 31.0749L49.1978 36.5348C49.4521 36.789 49.4915 37.1892 49.2791 37.4793C46.2809 41.5752 41.4993 44.25 36 44.25C27.0272 44.25 19.75 36.9728 19.75 28C19.75 22.4959 22.4296 17.7106 26.5944 14.7758ZM38.8261 29.413C41.5815 29.413 43.7717 27.2228 43.7717 24.4674C43.7717 21.712 41.5815 19.5217 38.8261 19.5217C36.0707 19.5217 33.8804 21.712 33.8804 24.4674C33.8804 27.2228 36.0707 29.413 38.8261 29.413Z" fill="url(#paint0_linear)"/>
<path d="M69.7193 19.2536C69.4061 16.9915 67.6661 15.679 65.409 15.679C62.7492 15.679 60.7456 17.618 60.7456 20.9091C60.7456 24.1954 62.7243 26.1393 65.409 26.1393C67.8301 26.1393 69.4359 24.5732 69.7193 22.6293L67.86 22.6194C67.6263 23.8126 66.6519 24.4837 65.4338 24.4837C63.7832 24.4837 62.6 23.2458 62.6 20.9091C62.6 18.6123 63.7733 17.3346 65.4388 17.3346C66.6767 17.3346 67.6462 18.0356 67.86 19.2536H69.7193Z" fill="black"/>
<path d="M74.6598 26.1492C76.8971 26.1492 78.3189 24.5732 78.3189 22.2117C78.3189 19.8452 76.8971 18.2643 74.6598 18.2643C72.4226 18.2643 71.0008 19.8452 71.0008 22.2117C71.0008 24.5732 72.4226 26.1492 74.6598 26.1492ZM74.6698 24.7074C73.4319 24.7074 72.8253 23.6037 72.8253 22.2067C72.8253 20.8097 73.4319 19.6911 74.6698 19.6911C75.8878 19.6911 76.4944 20.8097 76.4944 22.2067C76.4944 23.6037 75.8878 24.7074 74.6698 24.7074Z" fill="black"/>
<path d="M81.6462 21.5256C81.6462 20.4219 82.3124 19.7856 83.2619 19.7856C84.1916 19.7856 84.7484 20.3971 84.7484 21.4162V26.0001H86.5482V21.1378C86.5531 19.3083 85.5091 18.2643 83.9331 18.2643C82.7896 18.2643 82.0041 18.8111 81.6561 19.6613H81.5666V18.3637H79.8465V26.0001H81.6462V21.5256Z" fill="black"/>
<path d="M92.1909 18.3637H90.6845V16.5341H88.8848V18.3637H87.801V19.7557H88.8848V24.0015C88.8749 25.4383 89.9189 26.1442 91.2712 26.1045C91.7832 26.0895 92.1362 25.9901 92.3301 25.9255L92.0269 24.5185C91.9274 24.5434 91.7236 24.5881 91.4999 24.5881C91.0475 24.5881 90.6845 24.429 90.6845 23.7032V19.7557H92.1909V18.3637Z" fill="black"/>
<path d="M93.6961 26.0001H95.4958V18.3637H93.6961V26.0001ZM94.6009 17.2799C95.1726 17.2799 95.64 16.8424 95.64 16.3055C95.64 15.7635 95.1726 15.326 94.6009 15.326C94.0242 15.326 93.5569 15.7635 93.5569 16.3055C93.5569 16.8424 94.0242 17.2799 94.6009 17.2799Z" fill="black"/>
<path d="M99.1462 21.5256C99.1462 20.4219 99.8124 19.7856 100.762 19.7856C101.692 19.7856 102.248 20.3971 102.248 21.4162V26.0001H104.048V21.1378C104.053 19.3083 103.009 18.2643 101.433 18.2643C100.29 18.2643 99.5041 18.8111 99.1561 19.6613H99.0666V18.3637H97.3465V26.0001H99.1462V21.5256Z" fill="black"/>
<path d="M110.745 22.7884C110.745 23.9518 109.915 24.5285 109.119 24.5285C108.254 24.5285 107.677 23.917 107.677 22.9475V18.3637H105.878V23.2259C105.878 25.0604 106.922 26.0995 108.423 26.0995C109.567 26.0995 110.372 25.4979 110.72 24.6428H110.8V26.0001H112.545V18.3637H110.745V22.7884Z" fill="black"/>
<path d="M117.726 26.1492C119.963 26.1492 121.385 24.5732 121.385 22.2117C121.385 19.8452 119.963 18.2643 117.726 18.2643C115.489 18.2643 114.067 19.8452 114.067 22.2117C114.067 24.5732 115.489 26.1492 117.726 26.1492ZM117.736 24.7074C116.498 24.7074 115.892 23.6037 115.892 22.2067C115.892 20.8097 116.498 19.6911 117.736 19.6911C118.954 19.6911 119.561 20.8097 119.561 22.2067C119.561 23.6037 118.954 24.7074 117.736 24.7074Z" fill="black"/>
<path d="M127.78 22.7884C127.78 23.9518 126.95 24.5285 126.154 24.5285C125.289 24.5285 124.713 23.917 124.713 22.9475V18.3637H122.913V23.2259C122.913 25.0604 123.957 26.0995 125.458 26.0995C126.602 26.0995 127.407 25.4979 127.755 24.6428H127.835V26.0001H129.58V18.3637H127.78V22.7884Z" fill="black"/>
<path d="M137.466 20.3822C137.217 19.0895 136.183 18.2643 134.394 18.2643C132.554 18.2643 131.301 19.1691 131.306 20.581C131.301 21.6947 131.987 22.4305 133.454 22.7337L134.756 23.0072C135.457 23.1613 135.786 23.4447 135.786 23.8772C135.786 24.3992 135.219 24.792 134.364 24.792C133.538 24.792 133.001 24.434 132.847 23.7479L131.092 23.917C131.316 25.3189 132.494 26.1492 134.369 26.1492C136.278 26.1492 137.625 25.1599 137.63 23.7131C137.625 22.6243 136.924 21.9582 135.482 21.6449L134.18 21.3665C133.404 21.1925 133.096 20.9241 133.101 20.4816C133.096 19.9645 133.668 19.6066 134.418 19.6066C135.249 19.6066 135.686 20.059 135.825 20.5611L137.466 20.3822Z" fill="black"/>
<path d="M62.8486 30.8182H61.0041V41.0001H62.8486V30.8182Z" fill="black"/>
<path d="M66.5661 36.5256C66.5661 35.4219 67.2323 34.7856 68.1819 34.7856C69.1116 34.7856 69.6684 35.3971 69.6684 36.4162V41.0001H71.4681V36.1378C71.4731 34.3083 70.429 33.2643 68.853 33.2643C67.7096 33.2643 66.9241 33.8111 66.576 34.6613H66.4866V33.3637H64.7664V41.0001H66.5661V36.5256Z" fill="black"/>
<path d="M77.1108 33.3637H75.6044V31.5341H73.8047V33.3637H72.7209V34.7557H73.8047V39.0015C73.7948 40.4383 74.8388 41.1442 76.1911 41.1045C76.7032 41.0895 77.0562 40.9901 77.25 40.9255L76.9468 39.5185C76.8473 39.5434 76.6435 39.5881 76.4198 39.5881C75.9674 39.5881 75.6044 39.429 75.6044 38.7032V34.7557H77.1108V33.3637Z" fill="black"/>
<path d="M81.9146 41.1492C83.6945 41.1492 84.9175 40.2792 85.2357 38.9518L83.5553 38.7628C83.3117 39.4091 82.7151 39.7472 81.9395 39.7472C80.7761 39.7472 80.0055 38.9816 79.9906 37.6741H85.3102V37.1222C85.3102 34.4425 83.6994 33.2643 81.8202 33.2643C79.6327 33.2643 78.2058 34.8701 78.2058 37.2266C78.2058 39.6229 79.6128 41.1492 81.9146 41.1492ZM79.9956 36.461C80.0503 35.4866 80.7712 34.6662 81.845 34.6662C82.8791 34.6662 83.5752 35.4219 83.5851 36.461H79.9956Z" fill="black"/>
<path d="M90.1538 44.0228C92.217 44.0228 93.7383 43.0782 93.7383 41.1243V33.3637H91.9635V34.6265H91.864C91.5906 34.0746 91.0189 33.2643 89.6716 33.2643C87.9066 33.2643 86.5196 34.6464 86.5196 37.157C86.5196 39.6478 87.9066 40.8907 89.6666 40.8907C90.9741 40.8907 91.5856 40.1897 91.864 39.6279H91.9535V41.0746C91.9535 42.1982 91.2078 42.6606 90.1836 42.6606C89.0998 42.6606 88.6226 42.1485 88.4038 41.701L86.7831 42.0938C87.1112 43.1627 88.2099 44.0228 90.1538 44.0228ZM90.1687 39.4787C88.9805 39.4787 88.3541 38.554 88.3541 37.1471C88.3541 35.76 88.9706 34.7408 90.1687 34.7408C91.3271 34.7408 91.9635 35.7003 91.9635 37.1471C91.9635 38.6037 91.3172 39.4787 90.1687 39.4787Z" fill="black"/>
<path d="M95.5828 41.0001H97.3825V36.5107C97.3825 35.5412 98.1133 34.8552 99.1027 34.8552C99.4059 34.8552 99.7838 34.9099 99.9379 34.9596V33.304C99.7738 33.2742 99.4905 33.2543 99.2916 33.2543C98.4166 33.2543 97.6858 33.7515 97.4074 34.6364H97.3278V33.3637H95.5828V41.0001Z" fill="black"/>
<path d="M103.181 41.1542C104.379 41.1542 105.095 40.5924 105.423 39.951H105.482V41.0001H107.213V35.8893C107.213 33.8708 105.567 33.2643 104.11 33.2643C102.504 33.2643 101.272 33.9802 100.874 35.3722L102.554 35.6109C102.733 35.0888 103.24 34.6414 104.12 34.6414C104.955 34.6414 105.413 35.0689 105.413 35.8197V35.8495C105.413 36.3665 104.871 36.3914 103.524 36.5356C102.042 36.6947 100.625 37.1371 100.625 38.8573C100.625 40.3587 101.724 41.1542 103.181 41.1542ZM103.648 39.8317C102.897 39.8317 102.36 39.4887 102.36 38.8275C102.36 38.1364 102.962 37.8481 103.767 37.7337C104.24 37.6691 105.184 37.5498 105.418 37.3609V38.2607C105.418 39.1108 104.732 39.8317 103.648 39.8317Z" fill="black"/>
<path d="M112.835 33.3637H111.329V31.5341H109.529V33.3637H108.446V34.7557H109.529V39.0015C109.519 40.4383 110.563 41.1442 111.916 41.1045C112.428 41.0895 112.781 40.9901 112.975 40.9255L112.671 39.5185C112.572 39.5434 112.368 39.5881 112.144 39.5881C111.692 39.5881 111.329 39.429 111.329 38.7032V34.7557H112.835V33.3637Z" fill="black"/>
<path d="M114.341 41.0001H116.14V33.3637H114.341V41.0001ZM115.245 32.2799C115.817 32.2799 116.284 31.8424 116.284 31.3055C116.284 30.7635 115.817 30.326 115.245 30.326C114.669 30.326 114.201 30.7635 114.201 31.3055C114.201 31.8424 114.669 32.2799 115.245 32.2799Z" fill="black"/>
<path d="M121.322 41.1492C123.559 41.1492 124.981 39.5732 124.981 37.2117C124.981 34.8452 123.559 33.2643 121.322 33.2643C119.085 33.2643 117.663 34.8452 117.663 37.2117C117.663 39.5732 119.085 41.1492 121.322 41.1492ZM121.332 39.7074C120.094 39.7074 119.487 38.6037 119.487 37.2067C119.487 35.8097 120.094 34.6911 121.332 34.6911C122.55 34.6911 123.156 35.8097 123.156 37.2067C123.156 38.6037 122.55 39.7074 121.332 39.7074Z" fill="black"/>
<path d="M128.308 36.5256C128.308 35.4219 128.974 34.7856 129.924 34.7856C130.854 34.7856 131.411 35.3971 131.411 36.4162V41.0001H133.21V36.1378C133.215 34.3083 132.171 33.2643 130.595 33.2643C129.452 33.2643 128.666 33.8111 128.318 34.6613H128.229V33.3637H126.509V41.0001H128.308V36.5256Z" fill="black"/>
<defs>
<linearGradient id="paint0_linear" x1="9.25221" y1="22.2478" x2="30.2478" y2="54.7478" gradientUnits="userSpaceOnUse">
<stop stop-color="#73DFE7"/>
<stop offset="1" stop-color="#0095F7"/>
</linearGradient>
</defs>
</svg>

<svg width="168" height="56" fill="none" xmlns="http://www.w3.org/2000/svg"><path fill="#fff" d="M0 0h168v56H0z"/><path fill-rule="evenodd" clip-rule="evenodd" d="M52.25 28c0 2.005-.389 3.954-1.068 5.749a.484.484 0 01-.796.165l-4.987-4.927a.668.668 0 01-.107-.785c.54-1.034.811-2.216.811-3.452.07-4.027-3.25-7.348-7.348-7.348a7.41 7.41 0 00-3.529.883.662.662 0 01-.779-.1l-4.438-4.38c-.313-.31-.217-.835.193-.993A15.988 15.988 0 0136 11.75c8.973 0 16.25 7.277 16.25 16.25zM26.594 14.776a.727.727 0 01.934.089l5.044 5.044a.664.664 0 01.067.837 7.286 7.286 0 00-1.231 4.075 7.418 7.418 0 007.418 7.418 7.286 7.286 0 004.074-1.231.664.664 0 01.838.067l5.46 5.46a.728.728 0 01.081.944C46.281 41.575 41.5 44.25 36 44.25c-8.973 0-16.25-7.277-16.25-16.25 0-5.504 2.68-10.29 6.844-13.224zm12.232 14.637a4.915 4.915 0 004.946-4.946 4.915 4.915 0 00-4.946-4.945 4.915 4.915 0 00-4.946 4.945 4.915 4.915 0 004.946 4.946z" fill="url(#paint0_linear)"/><path d="M69.72 19.254c-.314-2.263-2.054-3.575-4.311-3.575-2.66 0-4.663 1.939-4.663 5.23 0 3.286 1.978 5.23 4.663 5.23 2.421 0 4.027-1.566 4.31-3.51l-1.859-.01c-.234 1.194-1.208 1.865-2.426 1.865-1.65 0-2.834-1.238-2.834-3.575 0-2.297 1.173-3.574 2.839-3.574 1.238 0 2.207.7 2.421 1.919h1.86zM74.66 26.15c2.237 0 3.659-1.577 3.659-3.938 0-2.367-1.422-3.948-3.66-3.948-2.236 0-3.658 1.581-3.658 3.948 0 2.361 1.422 3.937 3.659 3.937zm.01-1.443c-1.238 0-1.845-1.103-1.845-2.5s.607-2.516 1.845-2.516c1.218 0 1.824 1.119 1.824 2.516s-.606 2.5-1.824 2.5zM81.646 21.526c0-1.104.666-1.74 1.616-1.74.93 0 1.486.611 1.486 1.63V26h1.8v-4.862c.005-1.83-1.039-2.874-2.615-2.874-1.143 0-1.929.547-2.277 1.397h-.09v-1.297h-1.72V26h1.8v-4.474zM92.19 18.364h-1.505v-1.83h-1.8v1.83H87.8v1.392h1.084V24c-.01 1.437 1.034 2.143 2.386 2.104a3.621 3.621 0 001.06-.18l-.304-1.407c-.1.025-.303.07-.527.07-.453 0-.816-.159-.816-.885v-3.947h1.507v-1.392zM93.696 26h1.8v-7.636h-1.8V26zm.905-8.72c.572 0 1.039-.438 1.039-.975 0-.541-.467-.979-1.04-.979-.576 0-1.043.438-1.043.98 0 .536.467.974 1.044.974zM99.146 21.526c0-1.104.666-1.74 1.616-1.74.93 0 1.486.611 1.486 1.63V26h1.8v-4.862c.005-1.83-1.039-2.874-2.615-2.874-1.143 0-1.929.547-2.277 1.397h-.09v-1.297h-1.72V26h1.8v-4.474zM110.745 22.788c0 1.164-.83 1.74-1.626 1.74-.865 0-1.442-.611-1.442-1.58v-4.584h-1.799v4.862c0 1.834 1.044 2.873 2.545 2.873 1.144 0 1.949-.601 2.297-1.456h.08V26h1.745v-7.636h-1.8v4.424zM117.726 26.15c2.237 0 3.659-1.577 3.659-3.938 0-2.367-1.422-3.948-3.659-3.948s-3.659 1.581-3.659 3.948c0 2.361 1.422 3.937 3.659 3.937zm.01-1.443c-1.238 0-1.844-1.103-1.844-2.5s.606-2.516 1.844-2.516c1.218 0 1.825 1.119 1.825 2.516s-.607 2.5-1.825 2.5zM127.78 22.788c0 1.164-.83 1.74-1.626 1.74-.865 0-1.441-.611-1.441-1.58v-4.584h-1.8v4.862c0 1.834 1.044 2.873 2.545 2.873 1.144 0 1.949-.601 2.297-1.456h.08V26h1.745v-7.636h-1.8v4.424zM137.466 20.382c-.249-1.293-1.283-2.118-3.072-2.118-1.84 0-3.093.905-3.088 2.317-.005 1.114.681 1.85 2.148 2.153l1.302.273c.701.154 1.03.438 1.03.87 0 .522-.567.915-1.422.915-.826 0-1.363-.358-1.517-1.044l-1.755.169c.224 1.402 1.402 2.232 3.277 2.232 1.909 0 3.256-.99 3.261-2.436-.005-1.089-.706-1.755-2.148-2.068l-1.302-.279c-.776-.174-1.084-.442-1.079-.884-.005-.517.567-.875 1.317-.875.831 0 1.268.452 1.407.954l1.641-.179zM62.849 30.818h-1.845V41h1.845V30.818zM66.566 36.526c0-1.104.666-1.74 1.616-1.74.93 0 1.486.611 1.486 1.63V41h1.8v-4.862c.005-1.83-1.039-2.874-2.615-2.874-1.143 0-1.929.547-2.277 1.397h-.09v-1.297h-1.72V41h1.8v-4.474zM77.11 33.364h-1.506v-1.83h-1.8v1.83h-1.083v1.392h1.084V39c-.01 1.437 1.034 2.143 2.386 2.104a3.62 3.62 0 001.059-.18l-.303-1.406c-.1.024-.303.07-.527.07-.453 0-.816-.16-.816-.886v-3.947h1.507v-1.392zM81.915 41.15c1.78 0 3.002-.87 3.32-2.198l-1.68-.19c-.243.647-.84.985-1.616.985-1.163 0-1.933-.765-1.948-2.073h5.32v-.552c0-2.68-1.612-3.858-3.49-3.858-2.188 0-3.615 1.606-3.615 3.963 0 2.396 1.407 3.922 3.709 3.922zm-1.92-4.689c.055-.974.776-1.795 1.85-1.795 1.034 0 1.73.756 1.74 1.795h-3.59zM90.154 44.023c2.063 0 3.584-.945 3.584-2.899v-7.76h-1.775v1.263h-.099c-.273-.552-.845-1.363-2.192-1.363-1.765 0-3.152 1.382-3.152 3.893 0 2.49 1.387 3.734 3.147 3.734 1.307 0 1.919-.701 2.197-1.263h.09v1.447c0 1.123-.746 1.586-1.77 1.586-1.084 0-1.561-.513-1.78-.96l-1.62.393c.327 1.069 1.426 1.929 3.37 1.929zm.015-4.544c-1.188 0-1.815-.925-1.815-2.332 0-1.387.617-2.406 1.815-2.406 1.158 0 1.794.96 1.794 2.406 0 1.457-.646 2.332-1.794 2.332zM95.583 41h1.8v-4.49c0-.969.73-1.655 1.72-1.655.303 0 .68.055.835.105v-1.656a4.325 4.325 0 00-.646-.05c-.875 0-1.606.498-1.885 1.382h-.08v-1.272h-1.744V41zM103.181 41.154c1.198 0 1.914-.562 2.242-1.203h.059v1.05h1.731v-5.112c0-2.018-1.646-2.625-3.103-2.625-1.606 0-2.838.716-3.236 2.108l1.68.239c.179-.522.686-.97 1.566-.97.835 0 1.293.428 1.293 1.179v.03c0 .517-.542.541-1.889.686-1.482.159-2.899.601-2.899 2.321 0 1.502 1.099 2.297 2.556 2.297zm.467-1.322c-.751 0-1.288-.343-1.288-1.005 0-.69.602-.979 1.407-1.093.473-.065 1.417-.184 1.651-.373v.9c0 .85-.686 1.57-1.77 1.57zM112.835 33.364h-1.506v-1.83h-1.8v1.83h-1.083v1.392h1.083V39c-.01 1.437 1.034 2.143 2.387 2.104a3.623 3.623 0 001.059-.18l-.304-1.406c-.099.024-.303.07-.527.07-.452 0-.815-.16-.815-.886v-3.947h1.506v-1.392zM114.341 41h1.799v-7.636h-1.799V41zm.904-8.72c.572 0 1.039-.438 1.039-.975 0-.541-.467-.979-1.039-.979-.576 0-1.044.438-1.044.98 0 .536.468.974 1.044.974zM121.322 41.15c2.237 0 3.659-1.577 3.659-3.938 0-2.367-1.422-3.948-3.659-3.948s-3.659 1.581-3.659 3.948c0 2.361 1.422 3.937 3.659 3.937zm.01-1.443c-1.238 0-1.845-1.103-1.845-2.5s.607-2.516 1.845-2.516c1.218 0 1.824 1.119 1.824 2.516s-.606 2.5-1.824 2.5zM128.308 36.526c0-1.104.666-1.74 1.616-1.74.93 0 1.487.611 1.487 1.63V41h1.799v-4.862c.005-1.83-1.039-2.874-2.615-2.874-1.143 0-1.929.547-2.277 1.397h-.089v-1.297h-1.72V41h1.799v-4.474z" fill="#000"/><defs><linearGradient id="paint0_linear" x1="9.252" y1="22.248" x2="30.248" y2="54.748" gradientUnits="userSpaceOnUse"><stop stop-color="#73DFE7"/><stop offset="1" stop-color="#0095F7"/></linearGradient></defs></svg>
